X: 36096
T: Scholar, The
R: reel
M: 4/4
K: Dmajor
a2 af dfaf|cfaf Bfaf|g2 ge cege|Bege Aege|
a2 af dfaf|cfaf Bfaf|g2 gf gbag|fdec defg|

